Origami/48x48/apps/cryptomator.svg

<svg width="48" height="48" version="1.1" viewBox="0 0 48 48" xmlns="http://www.w3.org/2000/svg">
 <g transform="translate(0,-1004.3622)">
  <path d="m24 1009.3622c-6.627417 0-12 5.3726-12 12v12h12 12v-12c0-6.6274-5.372583-12-12-12zm0 4c4.418279 0 8 3.5813 8 8v8h-8-8v-8c0-4.4187 3.581721-8 8-8z" style="opacity:.2"/>
  <path d="m11.142857 1025.3621s-2.1428574-0.1144-2.1428574 2.0284v8.7273c1.9113824 7.6021 6.5236384 9.4449 10.1137 11.6225 1.285217 0.7796 3.074418 1.6285 4.8863 1.6218 1.811882 0.01 3.601083-0.8422 4.8863-1.6218 3.590062-2.1776 8.202318-4.0204 10.1137-11.6225v-8.7273c0-2.1428-2.142857-2.0284-2.142857-2.0284h-12.857143z" style="fill-rule:evenodd;opacity:.2"/>
  <path transform="translate(0,1004.3622)" d="m24 4c-6.627417 0-12 5.3726-12 12v12h12 12v-12c0-6.6274-5.372583-12-12-12zm0 4c4.418279 0 8 3.5813 8 8v8h-8-8v-8c0-4.4187 3.581721-8 8-8z" style="fill:#cccccc"/>
  <path d="m11.142857 1024.3622s-2.1428574-0.1144-2.1428574 2.0284v8.7273c1.9113824 7.6021 6.5236384 9.4449 10.1137 11.6225 1.285217 0.7796 3.074418 1.6285 4.8863 1.6218 1.811882 0.01 3.601083-0.8422 4.8863-1.6218 3.590062-2.1776 8.202318-4.0204 10.1137-11.6225v-8.7273c0-2.1428-2.142857-2.0284-2.142857-2.0284h-12.857143z" style="fill-rule:evenodd;fill:#385455"/>
  <path d="m13 1035.362-3.5647325 2.2414c1.1654275 3.517 2.9758705 5.6214 4.9281525 7.1422l4.63658-5.3836-1-2-3 1z" style="fill-rule:evenodd;opacity:.2"/>
  <path d="m13 1034.3622-3.5647325 2.2414c1.1654275 3.517 2.9758705 5.6214 4.9281525 7.1422l4.63658-5.3836-1-2-3 1z" style="fill-rule:evenodd;fill:#a2db44"/>
  <path d="m21 1041.362-3.45159 5.4553c0.52662 0.305 1.068012 0.6212 1.56529 0.9229 0.764837 0.464 1.710632 0.948 2.730887 1.266l1.155413-6.6442z" style="fill-rule:evenodd;opacity:.2"/>
  <path d="m21 1040.3622-3.45159 5.4553c0.52662 0.305 1.068012 0.6212 1.56529 0.9229 0.764837 0.464 1.710632 0.948 2.730887 1.266l1.155413-6.6442z" style="fill-rule:evenodd;fill:#a2db44"/>
  <path d="m12 1027.362v4h6v-2.5z" style="fill-rule:evenodd;opacity:.2"/>
  <path d="m12 1026.3622v4h6v-2.5z" style="fill-rule:evenodd;fill:#a2db44"/>
  <path transform="translate(0,1004.3622)" d="m24 22a3 3 0 0 0 -3 3 3 3 0 0 0 1.757812 2.726562l-1.757812 5.273438 3 1 3-1-1.757812-5.273438a3 3 0 0 0 1.757812 -2.726562 3 3 0 0 0 -3 -3z" style="opacity:.3"/>
  <path d="m35 1035.362 3.564732 2.2414c-1.165427 3.517-2.97587 5.6214-4.928152 7.1422l-4.63658-5.3836 1-2 3 1z" style="fill-rule:evenodd;opacity:.2"/>
  <path d="m35 1034.3622 3.564732 2.2414c-1.165427 3.517-2.97587 5.6214-4.928152 7.1422l-4.63658-5.3836 1-2 3 1z" style="fill-rule:evenodd;fill:#a2db44"/>
  <path d="m27 1041.362 3.45159 5.4553c-0.52662 0.305-1.068012 0.6212-1.56529 0.9229-0.764837 0.464-1.710632 0.948-2.730887 1.266l-1.155413-6.6442z" style="fill-rule:evenodd;opacity:.2"/>
  <path d="m27 1040.3622 3.45159 5.4553c-0.52662 0.305-1.068012 0.6212-1.56529 0.9229-0.764837 0.464-1.710632 0.948-2.730887 1.266l-1.155413-6.6442z" style="fill-rule:evenodd;fill:#a2db44"/>
  <path d="m36 1027.362v4h-6v-2.5z" style="fill-rule:evenodd;opacity:.2"/>
  <path d="m36 1026.3622v4h-6v-2.5z" style="fill-rule:evenodd;fill:#a2db44"/>
  <path transform="translate(0,1004.3622)" d="m24 4c-6.627417 0-12 5.3726-12 12v1c0-6.6274 5.372583-12 12-12s12 5.3726 12 12v-1c0-6.6274-5.372583-12-12-12z" style="fill:#ffffff;opacity:.1"/>
  <path transform="translate(0,1004.3622)" d="m11.142578 20s-2.142578-0.113503-2.142578 2.029297v0.998047c0-2.1428 2.142578-2.027344 2.142578-2.027344h12.857422 12.857422s2.142578-0.115456 2.142578 2.027344v-0.998047c0-2.1428-2.142578-2.029297-2.142578-2.029297h-12.857422-12.857422z" style="fill-rule:evenodd;fill:#ffffff;opacity:.1"/>
 </g>
</svg>

<svg xmlns="http://www.w3.org/2000/svg" width="48" height="48" version="1.1" viewBox="0 0 48 48">
 <g transform="translate(0,-1004.3622)">
  <path style="opacity:0.2" d="m 24,1009.3622 c -6.627417,0 -12,5.3726 -12,12 l 0,12 12,0 12,0 0,-12 c 0,-6.6274 -5.372583,-12 -12,-12 z m 0,4 c 4.418279,0 8,3.5813 8,8 l 0,8 -8,0 -8,0 0,-8 c 0,-4.4187 3.581721,-8 8,-8 z"/>
  <path style="opacity:0.2;fill-rule:evenodd" d="m 11.142857,1025.3621 c 0,0 -2.1428574,-0.1144 -2.1428574,2.0284 l 0,8.7273 c 1.9113824,7.6021 6.5236384,9.4449 10.1137004,11.6225 1.285217,0.7796 3.074418,1.6285 4.8863,1.6218 1.811882,0.01 3.601083,-0.8422 4.8863,-1.6218 3.590062,-2.1776 8.202318,-4.0204 10.1137,-11.6225 l 0,-8.7273 c 0,-2.1428 -2.142857,-2.0284 -2.142857,-2.0284 l -12.857143,0 z"/>
  <path style="fill:#cccccc" d="M 24 4 C 17.372583 4 12 9.3726 12 16 L 12 28 L 24 28 L 36 28 L 36 16 C 36 9.3726 30.627417 4 24 4 z M 24 8 C 28.418279 8 32 11.5813 32 16 L 32 24 L 24 24 L 16 24 L 16 16 C 16 11.5813 19.581721 8 24 8 z" transform="translate(0,1004.3622)"/>
  <path style="fill:#385455;fill-rule:evenodd" d="m 11.142857,1024.3622 c 0,0 -2.1428574,-0.1144 -2.1428574,2.0284 l 0,8.7273 c 1.9113824,7.6021 6.5236384,9.4449 10.1137004,11.6225 1.285217,0.7796 3.074418,1.6285 4.8863,1.6218 1.811882,0.01 3.601083,-0.8422 4.8863,-1.6218 3.590062,-2.1776 8.202318,-4.0204 10.1137,-11.6225 l 0,-8.7273 c 0,-2.1428 -2.142857,-2.0284 -2.142857,-2.0284 l -12.857143,0 z"/>
  <path style="opacity:0.2;fill-rule:evenodd" d="m 13,1035.362 -3.5647325,2.2414 c 1.1654275,3.517 2.9758705,5.6214 4.9281525,7.1422 L 19,1039.362 l -1,-2 -3,1 z"/>
  <path style="fill:#a2db44;fill-rule:evenodd" d="m 13,1034.3622 -3.5647325,2.2414 c 1.1654275,3.517 2.9758705,5.6214 4.9281525,7.1422 L 19,1038.3622 l -1,-2 -3,1 z"/>
  <path style="opacity:0.2;fill-rule:evenodd" d="m 21,1041.362 -3.45159,5.4553 c 0.52662,0.305 1.068012,0.6212 1.56529,0.9229 0.764837,0.464 1.710632,0.948 2.730887,1.266 L 23,1042.362 Z"/>
  <path style="fill:#a2db44;fill-rule:evenodd" d="m 21,1040.3622 -3.45159,5.4553 c 0.52662,0.305 1.068012,0.6212 1.56529,0.9229 0.764837,0.464 1.710632,0.948 2.730887,1.266 L 23,1041.3622 Z"/>
  <path style="opacity:0.2;fill-rule:evenodd" d="m 12,1027.362 0,4 6,0 0,-2.5 z"/>
  <path style="fill:#a2db44;fill-rule:evenodd" d="m 12,1026.3622 0,4 6,0 0,-2.5 z"/>
  <path style="opacity:0.3" d="M 24 22 A 3 3 0 0 0 21 25 A 3 3 0 0 0 22.757812 27.726562 L 21 33 L 24 34 L 27 33 L 25.242188 27.726562 A 3 3 0 0 0 27 25 A 3 3 0 0 0 24 22 z" transform="translate(0,1004.3622)"/>
  <path style="opacity:0.2;fill-rule:evenodd" d="m 35,1035.362 3.564732,2.2414 c -1.165427,3.517 -2.97587,5.6214 -4.928152,7.1422 L 29,1039.362 l 1,-2 3,1 z"/>
  <path style="fill:#a2db44;fill-rule:evenodd" d="m 35,1034.3622 3.564732,2.2414 c -1.165427,3.517 -2.97587,5.6214 -4.928152,7.1422 L 29,1038.3622 l 1,-2 3,1 z"/>
  <path style="opacity:0.2;fill-rule:evenodd" d="m 27,1041.362 3.45159,5.4553 c -0.52662,0.305 -1.068012,0.6212 -1.56529,0.9229 -0.764837,0.464 -1.710632,0.948 -2.730887,1.266 L 25,1042.362 Z"/>
  <path style="fill:#a2db44;fill-rule:evenodd" d="m 27,1040.3622 3.45159,5.4553 c -0.52662,0.305 -1.068012,0.6212 -1.56529,0.9229 -0.764837,0.464 -1.710632,0.948 -2.730887,1.266 L 25,1041.3622 Z"/>
  <path style="opacity:0.2;fill-rule:evenodd" d="m 36,1027.362 0,4 -6,0 0,-2.5 z"/>
  <path style="fill:#a2db44;fill-rule:evenodd" d="m 36,1026.3622 0,4 -6,0 0,-2.5 z"/>
  <path style="opacity:0.1;fill:#ffffff" d="M 24 4 C 17.372583 4 12 9.3726 12 16 L 12 17 C 12 10.3726 17.372583 5 24 5 C 30.627417 5 36 10.3726 36 17 L 36 16 C 36 9.3726 30.627417 4 24 4 z" transform="translate(0,1004.3622)"/>
  <path style="fill:#ffffff;fill-rule:evenodd;opacity:0.1" d="M 11.142578 20 C 11.142578 20 9 19.886497 9 22.029297 L 9 23.027344 C 9 20.884544 11.142578 21 11.142578 21 L 24 21 L 36.857422 21 C 36.857422 21 39 20.884544 39 23.027344 L 39 22.029297 C 39 19.886497 36.857422 20 36.857422 20 L 24 20 L 11.142578 20 z" transform="translate(0,1004.3622)"/>
 </g>
</svg>
